X:1
T:Title
%%score { 1 | ( 2 3 ) }
L:1/8
M:4/4
K:Eb
V:1 treble nm="Grand Piano"
V:2 bass 
V:3 bass 
V:1
 z4 z2[Q:1/4=90] B,B, | EEEE EE F2 | G2 G4 EF | G2 GG GGAF | B6 BB | %5
 [Cc][Cc][Ec][Ec] [Ac]2 [EA][Ec] | B2 B4 GG | [DEG][CEG][B,EF][=A,EF] .[G,EF]2 [A,C]2 | %8
[M:3/4] [B,DF]6 |[M:1/4] [B,AB]2 |[M:4/4] [Ge][Ge][Ae][Ge] [_Gd]2 [=Gc][GB] | A2 A4 AA | %12
 [Dd][Dd][Fd][Fd] [Ad][Ad][Ac][GB] | G6 EF | GGG[FA] [GB]2 [EB][EB] | %15
[M:9/8] [Ec][Ec][Ec] [Ed] [Ee]2- [Ee][Ed][Ec] |[M:4/4] [EB][EB][DB][EB] [DA]2 D2 |[M:3/4] E6 |] %18
V:2
 z4 z2 [E,G,][E,G,] | [E,G,B,][E,G,B,][E,G,B,][E,G,B,] [E,_G,=A,][E,=G,B,] [E,_A,C]2 | %2
 [E,B,E]2 [E,B,E]4 [E,G,][E,A,E] | [E,B,E]2 [E,B,E][E,B,E] [E,CE][E,CE][F,CD][A,CD] | %4
 [G,B,E]6 [E,G,E][E,G,E] | [A,,A,][A,,A,][A,,A,][A,,A,] [A,,A,]2 [C,A,][A,,A,] | %6
 [E,G,E]2 [E,G,E]4 [E,B,E][E,=B,E] | C,C,C,C, z D F,2 |[M:3/4] B,,6 |[M:1/4] D,2 | %10
[M:4/4] [E,B,][E,B,][E,C][E,B,] [E,=A,]2 [E,B,][E,B,] | [F,B,D]2 [F,B,D]4 [F,B,D][F,B,D] | %12
 [B,,B,][B,,B,][B,,B,][B,,B,] [B,,B,][B,,B,][B,,B,][B,,B,] | [E,B,E]6 [E,G,][E,A,E] | %14
 [E,B,E][E,B,E][E,B,E][E,B,] [E,E]2 [E,G,][E,G,] | %15
[M:9/8] [A,,A,][A,,A,][A,,A,] [A,,B,] [=A,,C]2- [A,,C][A,,_G,][A,,G,] | %16
[M:4/4] [B,,G,][B,,G,][B,,F,][B,,G,] [B,,B,]2 [B,,A,B,]2 |[M:3/4] [E,G,B,]6 |] %18
V:3
 x8 | x8 | x8 | x8 | x8 | x8 | x8 | z4 C,2 z2 |[M:3/4] x6 |[M:1/4] x2 |[M:4/4] x8 | x8 | x8 | x8 | %14
 x8 |[M:9/8] x9 |[M:4/4] x8 |[M:3/4] x6 |] %18

